X: 6
T: The Heather Breeze
R: reel
M: 4/4
L: 1/8
K: Gmaj
|D~G3 dGBG | D~F3 cFAF | D~G3 dGBG | BdcB (3ABA (3GFE |
D~G3 dGBG | D~F3 cFAF | GABc dGBG | BdcA BGBd |
g2gf gbag | (3fgf de fgaf | dggf gbag | fdcA (3BAG Bc |
Gd (3Bcd gbag | fd (3ABd fgaf | gbag fagf | edcB (3ABA (3GFE |


Tune 411	Setting 13261

